public/icons/icon/font-mono.svg

<svg width="30" height="30" viewBox="0 0 30 30" fill="none" xmlns="http://www.w3.org/2000/svg">
<path d="M11.358 23.9353L10.0815 19.3244H4.68909L3.43867 23.9353H0L5.1059 5.75208H9.84709L14.979 23.9353H11.358ZM7.50254 9.11259H7.29414L5.28825 16.537H9.50843L7.50254 9.11259Z" fill="black"/>
<path d="M28.0462 23.9353C27.23 23.9353 26.5961 23.7356 26.1445 23.3362C25.7104 22.9194 25.4498 22.3462 25.363 21.6168H25.2328C24.9896 22.4504 24.512 23.1017 23.8 23.5706C23.0879 24.0222 22.2109 24.2479 21.1689 24.2479C19.8143 24.2479 18.7375 23.8919 17.9386 23.1799C17.1397 22.4678 16.7403 21.4779 16.7403 20.2101C16.7403 17.5008 18.7288 16.1462 22.7059 16.1462H25.0765V15.2605C25.0765 14.4095 24.868 13.7669 24.4512 13.3328C24.0344 12.8986 23.3571 12.6815 22.4193 12.6815C21.5683 12.6815 20.8823 12.8465 20.3613 13.1765C19.8403 13.5064 19.3974 13.9319 19.0327 14.4529L17.1311 12.8378C17.5479 12.091 18.2165 11.4658 19.1369 10.9622C20.0748 10.4412 21.2818 10.1807 22.758 10.1807C24.5294 10.1807 25.9101 10.5975 26.9 11.4311C27.9073 12.2473 28.4109 13.4717 28.4109 15.1042V21.4345H30V23.9353H28.0462ZM22.2891 21.9555C23.0879 21.9555 23.7479 21.7731 24.2689 21.4084C24.8073 21.0264 25.0765 20.514 25.0765 19.8714V18.074H22.784C20.9605 18.074 20.0487 18.6471 20.0487 19.7933V20.3143C20.0487 20.8527 20.2484 21.2608 20.6479 21.5387C21.0473 21.8165 21.5944 21.9555 22.2891 21.9555Z" fill="black"/>
</svg>

<svg xmlns="http://www.w3.org/2000/svg" width="30" height="30" fill="none"><path fill="#000" d="m11.358 23.935-1.277-4.61H4.69l-1.25 4.61H0L5.106 5.752h4.741l5.132 18.183h-3.621ZM7.503 9.113h-.209l-2.006 7.424h4.22L7.503 9.113ZM28.046 23.935c-.816 0-1.45-.2-1.901-.599-.435-.417-.695-.99-.782-1.72h-.13a3.407 3.407 0 0 1-1.433 1.955c-.712.451-1.59.677-2.631.677-1.355 0-2.431-.356-3.23-1.068-.8-.712-1.199-1.702-1.199-2.97 0-2.71 1.989-4.064 5.966-4.064h2.37v-.886c0-.85-.208-1.493-.625-1.927-.417-.434-1.094-.652-2.032-.652-.85 0-1.537.166-2.058.496-.52.33-.964.755-1.328 1.276l-1.902-1.615c.417-.747 1.085-1.372 2.006-1.876.938-.52 2.145-.781 3.621-.781 1.771 0 3.152.417 4.142 1.25 1.007.816 1.51 2.04 1.51 3.673v6.33H30v2.501h-1.954Zm-5.757-1.98c.799 0 1.459-.182 1.98-.547.538-.382.808-.894.808-1.537v-1.797h-2.293c-1.823 0-2.735.573-2.735 1.72v.52c0 .539.2.947.599 1.225.4.277.946.416 1.641.416Z"/></svg>
